X:22
T:B022-  Balow (my babe)
S:via BBBM, from John Gamble's MS, 1659
Q:1/4=120
L:1/4
M:6/4
K:F
AGFF2(A|A)^C3/2C/2D3|AcAc2(F|F)GA/2B/2c3|\
AGFF2(A|A)^C3/2C/2D3|AcAc2(F|\
F)GA/2B/2c3|AcAc3|B/2c/2dBd3|AcAc2c(c|\
c)d3/2e/2
M:C|
f2|z1f(c2|c)d(A2|A)cG3/2G/2|\
G3/2 A/2 G/2F/2E/2D/2|C2z/2C/2C/2C/2|\
c3/2 A/2 G3/2 F/2|F4|]
